asset/rc4/IWLTBAP Aspen - Standard.cube
# Copyright: (C) Copyright 2016 by IWLTBAP
# Cannot be resold, shared or otherwise redistributed
# Website: http://luts.iwltbap.com
TITLE "IWLTBAP Aspen (Rec.709)"
LUT_3D_SIZE 5
DOMAIN_MIN 0.000000 0.000000 0.000000
DOMAIN_MAX 0.903226 0.903226 0.903226
0.008209 0.017944 0.027344
0.145921 0.042321 0.007042
0.461800 0.119196 0.023550
0.695063 0.184188 0.050633
0.863599 0.210138 0.072077
0.018228 0.126822 0.149397
0.132118 0.149591 0.115150
0.518240 0.212996 0.074406
0.743161 0.275373 0.090270
0.888668 0.302441 0.104696
0.018891 0.343564 0.340088
0.026402 0.388215 0.299025
0.545603 0.453583 0.281094
0.797038 0.486816 0.190388
0.935298 0.492404 0.174878
0.123813 0.575626 0.477312
0.150742 0.576788 0.430747
0.513364 0.636984 0.454701
0.791313 0.661588 0.332652
0.949818 0.665925 0.252391
0.234299 0.719283 0.427923
0.293734 0.750249 0.461904
0.544366 0.791155 0.409265
0.819008 0.813891 0.329943
0.926034 0.807369 0.302547
0.005777 0.016930 0.061194
0.121894 0.045583 0.069863
0.513827 0.119969 0.069388
0.725358 0.174533 0.080237
0.855014 0.188969 0.095107
0.005649 0.122015 0.246566
0.121893 0.144324 0.164671
0.526078 0.221627 0.143039
0.745451 0.275359 0.132177
0.885879 0.279064 0.128441
0.020394 0.342387 0.419176
0.025367 0.380609 0.396165
0.510033 0.455883 0.388991
0.784013 0.489628 0.303781
0.939379 0.486628 0.220850
0.113657 0.560793 0.545521
0.146155 0.571368 0.510376
0.473643 0.636319 0.532251
0.783133 0.671820 0.473111
0.956917 0.671838 0.349706
0.217407 0.712837 0.511345
0.276484 0.750456 0.546262
0.525436 0.805854 0.564183
0.832580 0.834355 0.494295
0.951927 0.836351 0.456095
0.031338 0.026443 0.098791
0.121245 0.049752 0.124268
0.464048 0.127659 0.162845
0.716075 0.170588 0.155217
0.842505 0.163865 0.149336
0.002052 0.110367 0.355539
0.086211 0.147113 0.269336
0.461937 0.227743 0.277460
0.735608 0.277193 0.238827
0.871041 0.264264 0.207833
0.023620 0.331691 0.481603
0.030834 0.365943 0.496034
0.487286 0.472540 0.484109
0.760399 0.501875 0.443078
0.922148 0.468513 0.348600
0.105193 0.548357 0.605637
0.145475 0.566896 0.604219
0.354509 0.623262 0.593809
0.767136 0.686582 0.587526
0.947253 0.685716 0.508388
0.211112 0.709196 0.610217
0.265235 0.742921 0.629698
0.501527 0.804219 0.652893
0.827603 0.854170 0.631505
0.953245 0.861492 0.621066
0.059521 0.039368 0.172292
0.157744 0.061343 0.201133
0.466805 0.123711 0.246540
0.676840 0.172785 0.288122
0.814539 0.148109 0.253209
0.030239 0.116123 0.371844
0.092905 0.161810 0.356461
0.435335 0.241255 0.380987
0.689609 0.304005 0.406276
0.841229 0.251359 0.328241
0.027721 0.332652 0.551844
0.030212 0.354707 0.579708
0.447872 0.473737 0.552891
0.731228 0.518417 0.553052
0.894191 0.469326 0.481634
0.099782 0.540188 0.669502
0.138323 0.556582 0.680488
0.232832 0.596927 0.665456
0.750290 0.703917 0.697685
0.938835 0.704307 0.654198
0.206275 0.704529 0.701940
0.259833 0.735286 0.714651
0.432728 0.795577 0.740426
0.797461 0.871512 0.777079
0.942259 0.879302 0.763623
0.088683 0.052004 0.277825
0.239343 0.075715 0.288824
0.494381 0.132964 0.332358
0.665477 0.180511 0.386032
0.776077 0.148366 0.386136
0.061345 0.146314 0.413450
0.154553 0.179991 0.409848
0.465978 0.258998 0.448369
0.683586 0.328279 0.493296
0.812674 0.275196 0.474646
0.029787 0.323215 0.583059
0.058796 0.360073 0.595299
0.450841 0.489031 0.616490
0.696497 0.536011 0.650507
0.867281 0.506177 0.641412
0.079125 0.516049 0.738962
0.117474 0.537090 0.746163
0.194530 0.562189 0.738511
0.715783 0.703315 0.795307
0.908164 0.717665 0.802656
0.193874 0.699199 0.793921
0.242036 0.718002 0.801235
0.324148 0.772374 0.834401
0.716233 0.857229 0.879720
0.929969 0.896157 0.906454
