asset/rc4/IWLTBAP Aspen - Standard.cube
# Copyright: (C) Copyright 2016 by IWLTBAP
# Cannot be resold, shared or otherwise redistributed
# Website: http://luts.iwltbap.com
TITLE "IWLTBAP Aspen (Rec.709)"
LUT_3D_SIZE 8
DOMAIN_MIN 0.000000 0.000000 0.000000
DOMAIN_MAX 0.903226 0.903226 0.903226
0.008209 0.017944 0.027344
0.064591 0.022996 0.012132
0.174392 0.048564 0.008464
0.353612 0.089718 0.015646
0.536345 0.140291 0.030870
0.668442 0.176530 0.046840
0.777155 0.201216 0.062403
0.863599 0.210138 0.072077
0.009227 0.066057 0.085341
0.040940 0.071618 0.064646
0.199599 0.095284 0.042988
0.390833 0.137079 0.040259
0.550240 0.176351 0.048353
0.687185 0.214532 0.064306
0.789931 0.240529 0.074182
0.875939 0.255716 0.086302
0.024850 0.154053 0.169441
0.039022 0.162235 0.148040
0.178231 0.182212 0.132991
0.439501 0.225382 0.097031
0.608830 0.257452 0.090760
0.724965 0.289877 0.096848
0.822800 0.322076 0.108795
0.894334 0.321190 0.111433
0.039615 0.272355 0.271890
0.044967 0.296792 0.256817
0.099966 0.333389 0.246597
0.440383 0.367911 0.231629
0.631965 0.397933 0.170390
0.758790 0.422187 0.152226
0.854805 0.439448 0.153085
0.922732 0.431602 0.150310
0.006568 0.403432 0.396564
0.025097 0.423609 0.380833
0.067678 0.451513 0.342645
0.406606 0.498309 0.384136
0.618882 0.521843 0.321931
0.777454 0.540089 0.244400
0.876773 0.547099 0.207203
0.945205 0.542555 0.194821
0.089533 0.544008 0.466868
0.111419 0.547470 0.444188
0.128957 0.553037 0.412789
0.368486 0.596388 0.451166
0.626136 0.623939 0.418564
0.762540 0.636272 0.343949
0.882292 0.644251 0.263337
0.950941 0.641440 0.238990
0.179109 0.639426 0.469081
0.194924 0.640364 0.461329
0.223846 0.653801 0.455619
0.288447 0.676175 0.456179
0.649752 0.728020 0.430715
0.780990 0.729816 0.367289
0.858318 0.731479 0.305061
0.939042 0.730937 0.279080
0.234299 0.719283 0.427923
0.260581 0.736558 0.452120
0.310648 0.757661 0.464559
0.459535 0.783515 0.451049
0.680181 0.804878 0.367480
0.800062 0.813807 0.338991
0.865714 0.809136 0.310191
0.926034 0.807369 0.302547
0.006500 0.017475 0.046350
0.051466 0.024079 0.035768
0.199464 0.051251 0.038107
0.404563 0.094657 0.043290
0.579096 0.139725 0.050954
0.695775 0.172502 0.063232
0.786746 0.188230 0.072703
0.860242 0.199736 0.083491
0.007318 0.066087 0.124931
0.051106 0.069745 0.080707
0.191187 0.093725 0.072293
0.409665 0.136569 0.065941
0.590252 0.178194 0.065732
0.706343 0.215951 0.078373
0.800127 0.235653 0.089493
0.871865 0.239398 0.096220
0.017077 0.146018 0.219975
0.031592 0.161304 0.199983
0.165909 0.183747 0.169379
0.435991 0.224536 0.132145
0.605486 0.258926 0.115261
0.728944 0.291476 0.115592
0.821927 0.314686 0.123798
0.889602 0.311679 0.125955
0.031508 0.266733 0.326104
0.039374 0.290564 0.312856
0.074871 0.325131 0.271862
0.423099 0.373561 0.286219
0.626871 0.403173 0.228499
0.757554 0.428678 0.200838
0.853725 0.440966 0.178553
0.924534 0.426243 0.167165
0.004467 0.408198 0.432251
0.020367 0.425428 0.424224
0.049331 0.444692 0.383289
0.377856 0.500005 0.427849
0.609419 0.521483 0.377290
0.764142 0.537570 0.318470
0.877929 0.550429 0.258363
0.949188 0.538777 0.217330
0.085142 0.533004 0.505078
0.105429 0.543635 0.485326
0.131645 0.555015 0.454807
0.327151 0.589680 0.478587
0.606011 0.625942 0.475074
0.758346 0.640168 0.416896
0.880558 0.648278 0.343017
0.959265 0.642116 0.274448
0.174372 0.636773 0.513390
0.192399 0.639216 0.503495
0.216912 0.647337 0.493441
0.277466 0.673455 0.493120
0.630390 0.729923 0.505452
0.780417 0.737389 0.455410
0.867064 0.739490 0.395206
0.954915 0.736864 0.327993
0.224655 0.717367 0.473674
0.251773 0.731425 0.497352
0.298375 0.757956 0.518090
0.460322 0.790722 0.523473
0.676250 0.818381 0.479150
0.807521 0.825676 0.431823
0.885574 0.823430 0.387042
0.945590 0.822247 0.366608
0.005754 0.017000 0.064978
0.053014 0.026690 0.057998
0.153585 0.051704 0.079709
0.404375 0.101245 0.078030
0.587891 0.138933 0.081600
0.700559 0.171704 0.087066
0.784847 0.186689 0.095151
0.855178 0.187336 0.100712
0.003579 0.063276 0.182893
0.034647 0.066828 0.127277
0.150844 0.095383 0.119901
0.404961 0.140123 0.104371
0.589697 0.179145 0.102849
0.703533 0.212365 0.103152
0.794821 0.232573 0.110649
0.867767 0.228351 0.115395
0.003898 0.141453 0.290554
0.020672 0.153973 0.260599
0.154433 0.183561 0.204388
0.418699 0.230273 0.191441
0.599021 0.262972 0.170714
0.725351 0.290399 0.165575
0.826572 0.313593 0.155047
0.890663 0.295460 0.142469
0.020194 0.257470 0.373793
0.030837 0.284257 0.377309
0.043970 0.310310 0.359962
0.394120 0.375791 0.351883
0.613715 0.405676 0.299529
0.749924 0.431009 0.269837
0.851059 0.442501 0.234779
0.922668 0.417209 0.198190
0.004770 0.407394 0.474737
0.019383 0.428805 0.476940
0.045207 0.447683 0.449252
0.298348 0.487651 0.459350
0.592403 0.525567 0.440575
0.756032 0.541777 0.391679
0.867554 0.548111 0.343660
0.949986 0.545127 0.265326
0.077008 0.525285 0.534550
0.104384 0.536240 0.531994
0.126471 0.546714 0.504161
0.256268 0.578882 0.509016
0.584763 0.631790 0.530689
0.747742 0.647013 0.484723
0.877018 0.655827 0.432895
0.958801 0.645631 0.353511
0.167434 0.632706 0.561183
0.185657 0.634145 0.550590
0.211666 0.643660 0.536904
0.252257 0.662702 0.530283
0.612871 0.731057 0.562881
0.774690 0.745825 0.525732
0.866364 0.749301 0.486541
0.958858 0.749365 0.428891
0.216086 0.712859 0.523462
0.243777 0.727486 0.545915
0.285607 0.756460 0.562900
0.441091 0.791404 0.575443
0.663430 0.829035 0.571009
0.807875 0.838721 0.523632
0.892913 0.838335 0.494724
0.953749 0.839439 0.481472
0.023324 0.021636 0.085204
0.054007 0.033329 0.089871
0.150047 0.057140 0.114261
0.361132 0.100166 0.130109
0.574459 0.136928 0.123977
0.697584 0.170960 0.130182
0.786983 0.179783 0.131733
0.842893 0.171534 0.129674
0.004036 0.061052 0.188675
0.042634 0.071375 0.167009
0.139023 0.098963 0.159980
0.353093 0.140802 0.178055
0.579533 0.183650 0.161594
0.699887 0.210274 0.159693
0.798560 0.229095 0.163341
0.863214 0.223321 0.152953
0.005226 0.133890 0.368662
0.010563 0.142213 0.354359
0.118158 0.182683 0.269516
0.380357 0.232711 0.260739
0.591281 0.271098 0.238999
0.715620 0.292741 0.227605
0.821362 0.312206 0.220889
0.879726 0.285517 0.184862
0.024177 0.257489 0.411503
0.030968 0.274467 0.424636
0.044892 0.305171 0.416399
0.388685 0.385001 0.407039
0.590543 0.412384 0.380459
0.737725 0.439099 0.354746
0.845690 0.436896 0.321311
0.912264 0.399945 0.258286
0.006070 0.396570 0.508460
0.021688 0.418125 0.521219
0.042363 0.441332 0.520414
0.181028 0.472627 0.497412
0.576629 0.532875 0.500150
0.744010 0.550195 0.467804
0.858282 0.552862 0.426697
0.935918 0.533488 0.354511
0.072469 0.524754 0.576872
0.101943 0.537776 0.583869
0.127158 0.544994 0.564185
0.185270 0.557726 0.541948
0.565081 0.637160 0.577796
0.736789 0.653195 0.546910
0.864821 0.661897 0.510492
0.949581 0.652853 0.447189
0.167030 0.632721 0.612887
0.185064 0.633126 0.603425
0.207541 0.639115 0.592501
0.241561 0.655819 0.576162
0.586173 0.734262 0.613797
0.756652 0.755106 0.593155
0.862913 0.758412 0.567324
0.954219 0.759551 0.519306
0.212703 0.710923 0.580890
0.240886 0.724692 0.594756
0.275315 0.750946 0.609592
0.421482 0.785269 0.622339
0.650297 0.837694 0.645103
0.802312 0.851500 0.602363
0.891013 0.849316 0.574911
0.954887 0.856327 0.579322
0.037075 0.030779 0.118725
0.069359 0.039584 0.124426
0.156187 0.062165 0.149037
0.347008 0.101153 0.178467
0.544807 0.138050 0.195699
0.678944 0.163357 0.190924
0.780897 0.176132 0.181252
0.841089 0.158608 0.172504
0.024325 0.062783 0.218989
0.050423 0.077278 0.208948
0.129308 0.099423 0.205836
0.336972 0.144189 0.229844
0.542642 0.187101 0.243411
0.690001 0.212445 0.227229
0.788749 0.227113 0.215703
0.854470 0.210050 0.201645
0.001949 0.133118 0.391834
0.011135 0.135827 0.375006
0.108500 0.182146 0.326372
0.328447 0.230351 0.335460
0.539602 0.275736 0.343900
0.698052 0.300312 0.317274
0.807616 0.311860 0.298281
0.870977 0.279720 0.258587
0.022569 0.254866 0.465641
0.031527 0.272916 0.480097
0.043413 0.296259 0.479051
0.360894 0.390019 0.453355
0.565354 0.425720 0.447416
0.714224 0.448617 0.433854
0.829988 0.446806 0.405957
0.899566 0.398300 0.341279
0.004918 0.393720 0.541096
0.017096 0.413589 0.556805
0.041296 0.432002 0.557965
0.165778 0.470759 0.539409
0.569925 0.542639 0.547142
0.730010 0.560141 0.529096
0.847880 0.566035 0.499917
0.926411 0.532588 0.436174
0.075809 0.517902 0.612200
0.106907 0.531542 0.623382
0.132219 0.547864 0.620343
0.154137 0.546956 0.591794
0.515695 0.632082 0.616755
0.724332 0.662016 0.609077
0.861264 0.670543 0.580032
0.943794 0.659238 0.526604
0.166128 0.634708 0.664029
0.181895 0.629786 0.652087
0.203629 0.635956 0.638801
0.235955 0.653669 0.629219
0.541258 0.729482 0.659953
0.734346 0.762899 0.663337
0.853197 0.768410 0.639337
0.951516 0.771535 0.601641
0.211060 0.709446 0.634115
0.239130 0.722435 0.641124
0.272216 0.744791 0.652380
0.390931 0.784276 0.668920
0.617995 0.833870 0.690580
0.788545 0.858063 0.687823
0.890524 0.861024 0.655959
0.950473 0.867296 0.663450
0.054862 0.037266 0.161329
0.087344 0.044986 0.167877
0.183972 0.065637 0.194401
0.370839 0.108424 0.219800
0.537266 0.140733 0.249774
0.656849 0.168804 0.264610
0.748020 0.172088 0.263665
0.821744 0.147536 0.231161
0.034199 0.070507 0.262091
0.060102 0.085191 0.254182
0.148024 0.103811 0.249002
0.346796 0.152091 0.282935
0.529063 0.192101 0.306219
0.653690 0.217212 0.321298
0.761269 0.231664 0.309760
0.827157 0.199949 0.266727
0.007296 0.130714 0.404939
0.041360 0.144507 0.383604
0.118074 0.194048 0.373683
0.321266 0.239902 0.382760
0.522627 0.292789 0.407102
0.668304 0.330566 0.417877
0.789463 0.315556 0.372182
0.853987 0.274232 0.326831
0.022544 0.257021 0.497028
0.034603 0.276237 0.518142
0.068479 0.298296 0.502101
0.328396 0.391449 0.497043
0.525499 0.436727 0.509181
0.688341 0.460915 0.506565
0.815866 0.451940 0.471718
0.884119 0.397514 0.408279
0.006243 0.391847 0.588236
0.014518 0.406985 0.604926
0.034117 0.420778 0.609401
0.136679 0.454343 0.575510
0.559983 0.548415 0.588676
0.715726 0.569928 0.587470
0.836553 0.567077 0.562341
0.913308 0.537499 0.518318
0.070553 0.509078 0.641726
0.103406 0.528289 0.660543
0.126278 0.536212 0.656145
0.151568 0.539851 0.634471
0.477939 0.628872 0.658400
0.717939 0.673870 0.669406
0.851739 0.681270 0.652351
0.936522 0.669448 0.610997
0.161123 0.626956 0.706747
0.178284 0.627895 0.701388
0.199904 0.631413 0.690634
0.234205 0.650176 0.684889
0.451989 0.717495 0.707652
0.715417 0.769046 0.725943
0.845781 0.779216 0.711391
0.945327 0.784131 0.689025
0.209371 0.706186 0.687249
0.236050 0.719862 0.692191
0.269292 0.740582 0.702195
0.353225 0.776934 0.718859
0.568326 0.824638 0.738271
0.775537 0.867427 0.761517
0.874410 0.871184 0.739111
0.942034 0.876505 0.743269
0.073099 0.046046 0.212332
0.114574 0.054129 0.221598
0.222617 0.076087 0.240304
0.403657 0.112053 0.266276
0.538359 0.144244 0.302268
0.645625 0.169266 0.331327
0.732322 0.177635 0.340108
0.789977 0.147417 0.326907
0.051312 0.080161 0.293033
0.075838 0.089122 0.286532
0.185764 0.112762 0.296929
0.374991 0.157628 0.328504
0.529969 0.198044 0.360720
0.642566 0.224967 0.380557
0.743668 0.240252 0.385737
0.807897 0.206970 0.360621
0.042832 0.145943 0.415807
0.065431 0.164133 0.408402
0.135941 0.205139 0.411058
0.339075 0.256331 0.424390
0.525143 0.309312 0.451667
0.657435 0.346854 0.468874
0.764790 0.350369 0.466347
0.833805 0.284324 0.412095
0.021057 0.256307 0.516785
0.031838 0.268711 0.529447
0.096215 0.321081 0.522170
0.331855 0.398207 0.530181
0.519024 0.441135 0.539857
0.662285 0.473553 0.559980
0.791096 0.479218 0.558714
0.868899 0.411027 0.498234
0.009677 0.388387 0.612814
0.016254 0.404299 0.633339
0.034686 0.418830 0.641885
0.184506 0.467368 0.610192
0.537909 0.550305 0.632025
0.678868 0.577250 0.645638
0.817890 0.577960 0.633158
0.898792 0.543083 0.591238
0.059790 0.494940 0.682082
0.089672 0.515053 0.701471
0.117273 0.528122 0.700785
0.138995 0.534909 0.680918
0.472049 0.627409 0.703324
0.705288 0.677307 0.721956
0.837995 0.689583 0.718913
0.919698 0.672423 0.697218
0.149997 0.617982 0.745350
0.166288 0.617874 0.741266
0.186389 0.618878 0.732172
0.222916 0.642138 0.731818
0.366736 0.700386 0.752824
0.679208 0.763275 0.777931
0.837127 0.792723 0.788547
0.934776 0.792861 0.780060
0.201797 0.703650 0.740354
0.228181 0.711923 0.742067
0.264412 0.737613 0.754869
0.318490 0.768495 0.771231
0.475646 0.806736 0.792583
0.745877 0.862466 0.822009
0.861910 0.883424 0.828461
0.939612 0.885810 0.817936
0.088683 0.052004 0.277825
0.153059 0.061432 0.279881
0.280968 0.082439 0.294528
0.431734 0.116713 0.313928
0.548713 0.142782 0.344616
0.642775 0.170667 0.376983
0.716143 0.176779 0.392691
0.776077 0.148366 0.386136
0.070764 0.087238 0.329388
0.115744 0.098694 0.328657
0.225951 0.126753 0.348602
0.412345 0.166002 0.370971
0.540746 0.205731 0.398664
0.645323 0.233742 0.423886
0.736585 0.250321 0.439586
0.794570 0.214965 0.427235
0.064919 0.165050 0.440438
0.091998 0.181736 0.439167
0.173313 0.221168 0.443257
0.375210 0.272374 0.458346
0.539134 0.325892 0.486586
0.659500 0.360505 0.510047
0.762082 0.366129 0.521216
0.820625 0.301897 0.493152
0.047596 0.278621 0.562144
0.079770 0.295911 0.549019
0.120970 0.338340 0.545325
0.355723 0.409992 0.562305
0.526561 0.448455 0.574416
0.665626 0.481621 0.601030
0.777026 0.487864 0.610440
0.852903 0.437083 0.588495
0.008669 0.387462 0.639609
0.014823 0.397456 0.651199
0.031499 0.412449 0.656170
0.245177 0.487428 0.650479
0.532732 0.556784 0.669680
0.665983 0.579182 0.689521
0.792509 0.597372 0.707685
0.880321 0.566262 0.690217
0.060631 0.494017 0.723756
0.083689 0.507581 0.732865
0.107630 0.515685 0.730481
0.133267 0.522077 0.722715
0.451289 0.619474 0.748677
0.679020 0.678476 0.773737
0.807317 0.694425 0.785352
0.905052 0.690221 0.781406
0.139231 0.601573 0.780788
0.154105 0.603337 0.782190
0.172766 0.602319 0.781010
0.207468 0.622706 0.780553
0.305364 0.675883 0.798466
0.666866 0.756752 0.831705
0.819565 0.790519 0.851646
0.915191 0.796592 0.855069
0.193874 0.699199 0.793921
0.218894 0.705219 0.794421
0.252990 0.724712 0.804670
0.297590 0.755915 0.824479
0.368666 0.788784 0.846147
0.665420 0.847854 0.876244
0.822733 0.877008 0.889404
0.929969 0.896157 0.906454
