asset/rc4/IWLTBAP Aspen - Standard.cube
# Copyright: (C) Copyright 2016 by IWLTBAP
# Cannot be resold, shared or otherwise redistributed
# Website: http://luts.iwltbap.com
TITLE "IWLTBAP Aspen (Rec.709)"
LUT_3D_SIZE 32
0.008209 0.017944 0.027344
0.011224 0.015760 0.019969
0.018524 0.015635 0.016239
0.033251 0.017200 0.014586
0.064591 0.022996 0.012132
0.094808 0.029230 0.006759
0.117319 0.035627 0.006162
0.145921 0.042321 0.007042
0.174392 0.048564 0.008464
0.212220 0.058959 0.011873
0.250663 0.067547 0.011059
0.298672 0.078003 0.013312
0.353612 0.089718 0.015646
0.411623 0.107560 0.019436
0.461800 0.119196 0.023550
0.504566 0.129509 0.026180
0.536345 0.140291 0.030870
0.565258 0.148288 0.033126
0.601258 0.153046 0.033201
0.637771 0.165945 0.040945
0.668442 0.176530 0.046840
0.695063 0.184188 0.050633
0.718621 0.187231 0.050516
0.747189 0.192974 0.055779
0.777155 0.201216 0.062403
0.800867 0.208329 0.066229
0.820873 0.206866 0.067593
0.840523 0.207053 0.068158
0.863599 0.210138 0.072077
0.876368 0.207916 0.073279
0.884185 0.206383 0.073787
0.887512 0.203979 0.073792
0.008164 0.028905 0.040329
0.010993 0.027726 0.033750
0.021905 0.025913 0.025334
0.037702 0.026574 0.021556
0.066809 0.032412 0.020854
0.096099 0.038094 0.017404
0.121543 0.044100 0.015092
0.155533 0.051690 0.014668
0.182961 0.058239 0.014699
0.224350 0.068280 0.016945
0.262460 0.076322 0.016363
0.309891 0.085809 0.018015
0.364005 0.098798 0.019821
0.423290 0.117306 0.024264
0.462574 0.126474 0.026038
0.502690 0.137412 0.029663
0.533253 0.147862 0.034382
0.564227 0.156190 0.035950
0.603357 0.161976 0.036960
0.641428 0.173739 0.044883
0.672949 0.185041 0.050732
0.699135 0.192550 0.054126
0.721480 0.195312 0.054151
0.749630 0.200869 0.058708
0.779795 0.208568 0.064187
0.803859 0.217133 0.068775
0.823851 0.215087 0.069427
0.843422 0.216020 0.070657
0.865990 0.219835 0.074684
0.879393 0.217207 0.075884
0.887582 0.216119 0.076362
0.891679 0.214614 0.076491
0.008799 0.039967 0.050669
0.011373 0.039739 0.047223
0.014309 0.039218 0.042760
0.033094 0.038797 0.034045
0.062701 0.042446 0.031252
0.092207 0.049236 0.027553
0.124253 0.053921 0.024309
0.160198 0.060454 0.022698
0.192371 0.068961 0.021397
0.235947 0.078001 0.023551
0.275128 0.086228 0.022752
0.321013 0.095415 0.024888
0.368808 0.108138 0.024434
0.429346 0.126750 0.027935
0.466346 0.135200 0.030533
0.501891 0.145699 0.033704
0.532022 0.155548 0.038175
0.566660 0.164240 0.039633
0.606357 0.171594 0.041525
0.644476 0.181054 0.049081
0.677936 0.193884 0.055087
0.703672 0.201262 0.057891
0.725351 0.204004 0.058082
0.752914 0.210712 0.062498
0.782515 0.218290 0.067762
0.806825 0.225506 0.071118
0.827830 0.226373 0.072581
0.847002 0.227270 0.074069
0.868606 0.230579 0.077795
0.882423 0.227051 0.078727
0.890621 0.226137 0.079098
0.894557 0.225089 0.079299
0.009248 0.050415 0.063435
0.011572 0.050593 0.060730
0.014143 0.050996 0.057256
0.022968 0.052380 0.053210
0.052433 0.055174 0.045863
0.087138 0.059653 0.039949
0.121885 0.066429 0.036109
0.163406 0.072467 0.032430
0.201279 0.081825 0.030552
0.243854 0.089811 0.031757
0.284898 0.099077 0.030461
0.329999 0.107275 0.032378
0.378747 0.120385 0.031813
0.432686 0.136666 0.034006
0.470961 0.145298 0.035845
0.504737 0.154854 0.038623
0.537908 0.163549 0.042669
0.573429 0.174417 0.044689
0.611232 0.182267 0.047373
0.648121 0.189437 0.054075
0.682958 0.202880 0.059938
0.708974 0.211110 0.062236
0.730102 0.215445 0.063092
0.757527 0.223116 0.066313
0.785386 0.227829 0.070305
0.809570 0.233280 0.073184
0.832328 0.238907 0.076511
0.851946 0.240637 0.078313
0.871505 0.242450 0.081478
0.884986 0.239043 0.082196
0.893557 0.236006 0.080120
0.897316 0.235353 0.080721
0.009227 0.066057 0.085341
0.011513 0.066164 0.081101
0.013710 0.066516 0.075620
0.020821 0.067776 0.070113
0.040940 0.071618 0.064646
0.075697 0.075940 0.058654
0.116816 0.082800 0.053260
0.156682 0.086824 0.048002
0.199599 0.095284 0.042988
0.246019 0.104533 0.042825
0.294182 0.112587 0.042021
0.340804 0.124220 0.041790
0.390833 0.137079 0.040259
0.437674 0.148045 0.041899
0.477605 0.156588 0.042638
0.512598 0.166287 0.045268
0.550240 0.176351 0.048353
0.584593 0.186411 0.050663
0.618334 0.194159 0.054276
0.653217 0.200080 0.060272
0.687185 0.214532 0.064306
0.715234 0.224525 0.068520
0.738750 0.230493 0.070248
0.764511 0.237667 0.070990
0.789931 0.240529 0.074182
0.813182 0.242601 0.076016
0.837477 0.252722 0.081545
0.856768 0.255133 0.084001
0.875939 0.255716 0.086302
0.888507 0.252469 0.086473
0.896020 0.248801 0.083902
0.900121 0.246715 0.082492
0.009314 0.082379 0.110476
0.011187 0.082654 0.103673
0.012980 0.084093 0.097300
0.014981 0.085602 0.090218
0.027204 0.089436 0.084936
0.065489 0.093954 0.077167
0.108111 0.099901 0.072021
0.151967 0.105359 0.064645
0.196325 0.110424 0.057752
0.247613 0.121847 0.053657
0.299465 0.127722 0.052248
0.348544 0.139972 0.051647
0.406865 0.155653 0.050751
0.450858 0.164882 0.052183
0.488598 0.172666 0.052187
0.523192 0.180371 0.053447
0.563988 0.190853 0.055225
0.597879 0.199883 0.057962
0.628360 0.208907 0.062182
0.660072 0.217032 0.067081
0.692716 0.229838 0.068502
0.723389 0.240688 0.075545
0.749358 0.247577 0.078365
0.773096 0.253488 0.077697
0.796759 0.256760 0.081367
0.820293 0.260859 0.083433
0.843843 0.269081 0.088436
0.861577 0.270749 0.091331
0.880038 0.270487 0.092792
0.893036 0.268165 0.092425
0.900597 0.265334 0.089978
0.904966 0.263283 0.088296
0.013329 0.103062 0.130979
0.015709 0.104021 0.127603
0.017528 0.104593 0.120363
0.019692 0.106076 0.112789
0.026688 0.109894 0.106621
0.054053 0.118540 0.100448
0.095555 0.119509 0.096181
0.143828 0.124909 0.086407
0.194517 0.129710 0.076568
0.248032 0.138303 0.069715
0.307278 0.148531 0.065755
0.361789 0.162262 0.063995
0.421887 0.175767 0.062268
0.465050 0.183797 0.063103
0.501483 0.191027 0.063057
0.537218 0.197908 0.063256
0.577491 0.207982 0.064490
0.613158 0.218973 0.067721
0.639701 0.229387 0.072086
0.671160 0.237252 0.074440
0.700448 0.247046 0.073894
0.731979 0.257287 0.082349
0.760261 0.265111 0.085985
0.782659 0.271055 0.086849
0.806186 0.275627 0.090413
0.829880 0.280626 0.091979
0.851845 0.285945 0.095612
0.867043 0.285979 0.097607
0.884228 0.285399 0.098498
0.897464 0.285163 0.098391
0.905975 0.282598 0.097333
0.910490 0.280969 0.095672
0.018228 0.126822 0.149397
0.021025 0.128190 0.146696
0.023748 0.129578 0.142907
0.026518 0.130390 0.136192
0.030650 0.131706 0.126896
0.046290 0.139038 0.121066
0.083849 0.147210 0.117317
0.132118 0.149591 0.115150
0.188759 0.155108 0.103037
0.243181 0.163276 0.093646
0.305593 0.172551 0.086330
0.373379 0.186875 0.080214
0.433992 0.196654 0.075801
0.481019 0.205551 0.075349
0.518240 0.212996 0.074406
0.556610 0.222203 0.075258
0.594366 0.231938 0.076827
0.627726 0.242683 0.079564
0.652828 0.252253 0.083127
0.684124 0.259828 0.084577
0.712632 0.267293 0.083845
0.743161 0.275373 0.090270
0.770767 0.284494 0.093974
0.792558 0.291914 0.098202
0.816374 0.297177 0.100134
0.838646 0.303055 0.101522
0.858749 0.305795 0.103277
0.873149 0.303150 0.104436
0.888668 0.302441 0.104696
0.901347 0.303306 0.104606
0.910188 0.302470 0.103882
0.915626 0.300776 0.103015
0.024850 0.154053 0.169441
0.028333 0.157297 0.166142
0.032374 0.159788 0.160798
0.036178 0.161376 0.155007
0.039022 0.162235 0.148040
0.044173 0.163806 0.139484
0.077316 0.173176 0.137589
0.118918 0.177843 0.139066
0.178231 0.182212 0.132991
0.241557 0.190171 0.122123
0.300382 0.198974 0.109273
0.375363 0.212188 0.101057
0.439501 0.225382 0.097031
0.490347 0.231630 0.092230
0.534506 0.239059 0.089045
0.573886 0.249422 0.089098
0.608830 0.257452 0.090760
0.641481 0.267090 0.091880
0.669207 0.276175 0.093134
0.697939 0.284280 0.097061
0.724965 0.289877 0.096848
0.751715 0.296265 0.098051
0.777282 0.307155 0.102628
0.799824 0.316035 0.107158
0.822800 0.322076 0.108795
0.844620 0.327071 0.111177
0.864424 0.328290 0.112156
0.879795 0.323528 0.111746
0.894334 0.321190 0.111433
0.905286 0.322067 0.111203
0.913974 0.323291 0.110751
0.919815 0.323289 0.109909
0.031977 0.178428 0.193213
0.034517 0.181349 0.192336
0.038172 0.184165 0.187999
0.042815 0.186599 0.179210
0.047539 0.188981 0.170858
0.052934 0.193577 0.163792
0.079659 0.201681 0.159098
0.114695 0.211121 0.166106
0.165635 0.212056 0.165699
0.233644 0.218487 0.158034
0.300624 0.227639 0.138630
0.375179 0.240352 0.125078
0.442641 0.252278 0.120246
0.492495 0.259063 0.113959
0.540410 0.267194 0.108727
0.581254 0.276929 0.104815
0.615570 0.285179 0.106219
0.647406 0.294224 0.106259
0.677138 0.304002 0.105326
0.705235 0.310824 0.107335
0.733727 0.318276 0.110122
0.759132 0.325328 0.110144
0.783193 0.333712 0.112692
0.806099 0.340659 0.115814
0.829799 0.348979 0.118312
0.851408 0.353490 0.120870
0.870050 0.352642 0.121217
0.886642 0.346814 0.120082
0.902145 0.342449 0.118973
0.912482 0.342899 0.118371
0.920398 0.345093 0.118117
0.926275 0.346805 0.117679
0.042059 0.207798 0.220557
0.044271 0.210596 0.217740
0.046617 0.213541 0.213703
0.048955 0.216398 0.208965
0.053047 0.219465 0.201034
0.056290 0.223513 0.190009
0.072395 0.237916 0.181833
0.105644 0.240508 0.186121
0.155926 0.250244 0.194302
0.215162 0.254437 0.194476
0.298293 0.259210 0.179552
0.374403 0.270677 0.160089
0.443356 0.282676 0.148226
0.498230 0.292012 0.138876
0.545173 0.299323 0.131183
0.588218 0.312431 0.124558
0.622992 0.319968 0.122612
0.654560 0.330649 0.122662
0.684457 0.338661 0.121350
0.711489 0.339482 0.117024
0.740602 0.347804 0.120227
0.767196 0.357637 0.123165
0.792227 0.365150 0.124428
0.813728 0.370269 0.126459
0.837890 0.378100 0.128524
0.859518 0.381773 0.130115
0.877971 0.381554 0.129618
0.894333 0.376562 0.128603
0.908886 0.368511 0.128566
0.918686 0.366829 0.127601
0.926263 0.369083 0.127377
0.932766 0.371522 0.126913
0.044303 0.240153 0.243732
0.045911 0.243332 0.241716
0.047738 0.246589 0.237821
0.049655 0.250064 0.231925
0.051163 0.253596 0.227404
0.052581 0.257683 0.221362
0.057134 0.266965 0.210293
0.088547 0.276393 0.206107
0.133549 0.291632 0.220309
0.204804 0.303165 0.228340
0.280235 0.308103 0.225232
0.376029 0.312532 0.201376
0.441036 0.324349 0.186145
0.501094 0.334659 0.173251
0.552712 0.340789 0.160592
0.593873 0.352012 0.149523
0.628625 0.358431 0.141306
0.660740 0.368440 0.140130
0.692697 0.376647 0.138270
0.721518 0.377235 0.133718
0.749010 0.384633 0.135503
0.776696 0.394374 0.137783
0.803524 0.400841 0.138198
0.823500 0.403834 0.138889
0.846524 0.409065 0.140061
0.868262 0.411921 0.140396
0.885292 0.410990 0.139679
0.900415 0.406083 0.137968
0.914908 0.398519 0.137525
0.923517 0.394477 0.137012
0.932230 0.395787 0.137092
0.940301 0.398311 0.136329
0.039615 0.272355 0.271890
0.040186 0.278111 0.270712
0.040957 0.283707 0.268188
0.042674 0.290340 0.264409
0.044967 0.296792 0.256817
0.046602 0.302109 0.249459
0.048335 0.308143 0.243339
0.059635 0.322976 0.235955
0.099966 0.333389 0.246597
0.181488 0.348079 0.259405
0.273218 0.355797 0.263663
0.360758 0.361646 0.252179
0.440383 0.367911 0.231629
0.501241 0.375820 0.211139
0.553882 0.382685 0.196952
0.594340 0.391176 0.185386
0.631965 0.397933 0.170390
0.667214 0.406005 0.162873
0.700293 0.414248 0.156825
0.731932 0.417385 0.152491
0.758790 0.422187 0.152226
0.785229 0.429269 0.152965
0.812471 0.434625 0.152473
0.831954 0.435895 0.152039
0.854805 0.439448 0.153085
0.876887 0.442338 0.153233
0.891494 0.441399 0.152940
0.906353 0.436254 0.150967
0.922732 0.431602 0.150310
0.930874 0.426823 0.149040
0.939685 0.428790 0.149167
0.949475 0.431216 0.148189
0.028363 0.307736 0.304393
0.029482 0.313891 0.303226
0.029670 0.319521 0.301919
0.030531 0.325907 0.299967
0.031588 0.332343 0.296223
0.033398 0.339240 0.287392
0.034674 0.347077 0.275239
0.041616 0.360162 0.266821
0.080309 0.365618 0.267142
0.149387 0.378592 0.286552
0.269249 0.393886 0.294555
0.355569 0.404267 0.295109
0.427119 0.409085 0.281414
0.497752 0.415362 0.257811
0.551699 0.421274 0.235880
0.593331 0.427003 0.222122
0.633202 0.433556 0.206444
0.670002 0.439189 0.193641
0.704654 0.447837 0.185916
0.736120 0.451935 0.178594
0.765315 0.454468 0.171732
0.792769 0.460073 0.170060
0.820660 0.466677 0.168230
0.840708 0.467369 0.166392
0.862878 0.468538 0.165973
0.885815 0.471992 0.166594
0.899983 0.471272 0.165866
0.913302 0.466979 0.164191
0.929281 0.463261 0.163330
0.938864 0.460032 0.161853
0.946943 0.461931 0.161057
0.956550 0.463895 0.159183
0.018891 0.343564 0.340088
0.019876 0.350451 0.338258
0.020820 0.356744 0.334384
0.020516 0.361717 0.328536
0.019998 0.366491 0.322255
0.021895 0.372789 0.317532
0.023594 0.379957 0.311111
0.026402 0.388215 0.299025
0.056525 0.396787 0.287201
0.129322 0.407554 0.309103
0.232241 0.419194 0.325917
0.349198 0.431823 0.327713
0.422087 0.441925 0.320499
0.482513 0.447093 0.308483
0.545603 0.453583 0.281094
0.590454 0.459942 0.262146
0.632123 0.466085 0.244458
0.670931 0.470997 0.228058
0.707441 0.477931 0.215503
0.739963 0.482004 0.205936
0.770956 0.483941 0.194784
0.797038 0.486816 0.190388
0.824523 0.494594 0.187822
0.847484 0.496493 0.185060
0.869694 0.495535 0.178696
0.890161 0.498471 0.178940
0.905880 0.497600 0.177837
0.920181 0.493806 0.175312
0.935298 0.492404 0.174878
0.945042 0.489695 0.173214
0.952237 0.490699 0.171381
0.960055 0.491741 0.169191
0.010656 0.376559 0.373925
0.012324 0.380836 0.372155
0.013580 0.385778 0.368578
0.014898 0.391260 0.363067
0.017691 0.397923 0.354402
0.025269 0.404559 0.346808
0.032055 0.410589 0.339202
0.042020 0.416034 0.328516
0.062639 0.424331 0.316247
0.117917 0.434825 0.324238
0.198318 0.446529 0.349280
0.331544 0.463225 0.363350
0.416284 0.471536 0.353531
0.476961 0.477886 0.346657
0.534763 0.482343 0.327834
0.582644 0.488313 0.303720
0.625733 0.495983 0.283519
0.665817 0.499558 0.264007
0.705883 0.506050 0.245685
0.742308 0.510121 0.232739
0.773450 0.512467 0.219478
0.801283 0.514405 0.210914
0.827213 0.519572 0.204152
0.852332 0.523245 0.202110
0.875019 0.522147 0.193448
0.894718 0.524901 0.191669
0.911576 0.522336 0.189332
0.927771 0.519160 0.186133
0.941612 0.519946 0.185728
0.950183 0.519188 0.184170
0.957049 0.519742 0.181712
0.964927 0.519677 0.178901
0.006568 0.403432 0.396564
0.010749 0.406674 0.395422
0.014824 0.409962 0.393080
0.018624 0.415114 0.387996
0.025097 0.423609 0.380833
0.032252 0.433474 0.370974
0.041518 0.440190 0.362750
0.052367 0.446126 0.353966
0.067678 0.451513 0.342645
0.100292 0.461200 0.341335
0.179187 0.470962 0.365522
0.306819 0.488023 0.384004
0.406606 0.498309 0.384136
0.473104 0.505110 0.375112
0.531498 0.510051 0.362706
0.577470 0.514272 0.346095
0.618882 0.521843 0.321931
0.661810 0.526898 0.300755
0.702380 0.530129 0.279868
0.742035 0.533261 0.262657
0.777454 0.540089 0.244400
0.805635 0.541731 0.230362
0.832688 0.543472 0.218612
0.855800 0.546891 0.214957
0.876773 0.547099 0.207203
0.898892 0.548563 0.204024
0.917059 0.547311 0.201002
0.934086 0.542636 0.196760
0.945205 0.542555 0.194821
0.952519 0.542700 0.192838
0.958701 0.541744 0.189216
0.966109 0.540819 0.185274
0.025981 0.439576 0.414992
0.031837 0.443687 0.414612
0.038017 0.447900 0.412677
0.042694 0.451709 0.408272
0.046854 0.456864 0.400653
0.051265 0.464486 0.392797
0.056967 0.472504 0.383313
0.062633 0.477946 0.375312
0.069910 0.479830 0.365643
0.092042 0.485519 0.358060
0.160117 0.495282 0.376948
0.292131 0.508551 0.400656
0.395577 0.523419 0.411082
0.468830 0.528790 0.397626
0.528805 0.536471 0.389416
0.578668 0.540727 0.374861
0.614270 0.544427 0.359605
0.657515 0.551904 0.335845
0.699805 0.555712 0.312569
0.738399 0.556115 0.293959
0.776369 0.562614 0.272301
0.807291 0.565882 0.250160
0.834587 0.567984 0.236051
0.857542 0.571502 0.229195
0.879107 0.572572 0.220630
0.901115 0.572191 0.215533
0.920489 0.572115 0.212313
0.937762 0.568143 0.208157
0.948362 0.567452 0.205375
0.955347 0.566545 0.202291
0.961256 0.565047 0.198234
0.969164 0.562668 0.193582
0.034370 0.474613 0.431569
0.037844 0.477712 0.429859
0.041450 0.480795 0.427464
0.044681 0.484127 0.423649
0.047282 0.487344 0.417211
0.049408 0.492026 0.408968
0.052814 0.498979 0.399810
0.058907 0.503139 0.390495
0.065331 0.503387 0.381047
0.079683 0.505211 0.372426
0.150998 0.518795 0.385983
0.277119 0.533277 0.414071
0.385577 0.549072 0.427534
0.458173 0.553615 0.420302
0.527459 0.564662 0.412799
0.577496 0.567652 0.397194
0.617485 0.570258 0.384325
0.653712 0.575803 0.370415
0.694925 0.579884 0.343655
0.735346 0.583880 0.324502
0.771345 0.584180 0.302762
0.805626 0.587422 0.275608
0.833802 0.593091 0.258605
0.857286 0.595392 0.245364
0.882701 0.598673 0.232685
0.902967 0.599070 0.227255
0.922217 0.597500 0.223672
0.940219 0.594987 0.219980
0.951278 0.595193 0.217714
0.959493 0.592440 0.213969
0.965245 0.590469 0.209034
0.971205 0.587760 0.203507
0.042198 0.508031 0.447113
0.046552 0.510747 0.444818
0.055390 0.515739 0.442886
0.064402 0.520832 0.440093
0.070638 0.524052 0.433984
0.075759 0.525413 0.424389
0.082191 0.527347 0.414309
0.088470 0.528673 0.404421
0.092529 0.528013 0.395932
0.098085 0.527355 0.388835
0.149953 0.540026 0.394525
0.254632 0.553529 0.420814
0.377725 0.573584 0.441170
0.450679 0.581448 0.439103
0.518129 0.586821 0.430241
0.575119 0.593874 0.416789
0.624363 0.595941 0.402196
0.657652 0.598430 0.389488
0.691288 0.603423 0.372593
0.731357 0.610155 0.347055
0.767834 0.611030 0.324060
0.802350 0.612143 0.301871
0.830353 0.615642 0.280381
0.857314 0.618744 0.261715
0.883722 0.620767 0.245684
0.903324 0.622969 0.241344
0.922126 0.622228 0.236282
0.940431 0.619517 0.231745
0.950769 0.617694 0.227793
0.959562 0.615134 0.223363
0.966186 0.615353 0.219306
0.972716 0.613350 0.213308
0.089533 0.544008 0.466868
0.091760 0.544075 0.463080
0.097044 0.545416 0.457981
0.104008 0.546874 0.452081
0.111419 0.547470 0.444188
0.116143 0.549595 0.435838
0.120136 0.552032 0.427299
0.124413 0.553796 0.420198
0.128957 0.553037 0.412789
0.132518 0.552013 0.405493
0.149669 0.556296 0.401625
0.239703 0.576502 0.421858
0.368486 0.596388 0.451166
0.447404 0.610052 0.456322
0.514448 0.612219 0.443486
0.571494 0.619488 0.433135
0.626136 0.623939 0.418564
0.664591 0.623092 0.401430
0.694339 0.626866 0.388316
0.726586 0.633369 0.371494
0.762540 0.636272 0.343949
0.796324 0.638012 0.319228
0.827029 0.637451 0.299403
0.854608 0.640477 0.281024
0.882292 0.644251 0.263337
0.904198 0.644557 0.252469
0.923254 0.646206 0.247598
0.940419 0.645082 0.243461
0.950941 0.641440 0.238990
0.960120 0.638568 0.233621
0.967022 0.636916 0.228171
0.973108 0.635364 0.222525
0.123813 0.575626 0.477312
0.126846 0.575248 0.473756
0.130135 0.576098 0.468629
0.134050 0.574955 0.461116
0.138028 0.573738 0.453395
0.141047 0.573544 0.445306
0.145590 0.575595 0.438098
0.150742 0.576788 0.430747
0.156225 0.575920 0.423492
0.162384 0.575664 0.417017
0.169728 0.577277 0.410842
0.218895 0.592946 0.422271
0.350167 0.617443 0.456898
0.447136 0.635225 0.468668
0.513364 0.636984 0.454701
0.576267 0.648438 0.447220
0.625980 0.652235 0.429609
0.670329 0.653304 0.413313
0.701664 0.652712 0.395832
0.729970 0.654307 0.381595
0.758090 0.657874 0.363675
0.791313 0.661588 0.332652
0.820708 0.660968 0.307982
0.850488 0.664601 0.292233
0.878642 0.667980 0.273640
0.901645 0.666331 0.261647
0.922505 0.667131 0.260471
0.938330 0.666930 0.256606
0.949818 0.665925 0.252391
0.959365 0.663004 0.246369
0.966979 0.659141 0.238153
0.973442 0.655723 0.230603
0.146290 0.598848 0.477754
0.149518 0.598935 0.474896
0.153006 0.599471 0.470968
0.157182 0.599900 0.465329
0.160797 0.599597 0.459118
0.164194 0.598844 0.451248
0.168919 0.599600 0.445250
0.175875 0.601182 0.440882
0.183795 0.603011 0.435782
0.191254 0.603768 0.430165
0.199964 0.606938 0.426052
0.227034 0.616754 0.432304
0.324088 0.636676 0.455359
0.444585 0.657751 0.475184
0.517330 0.663795 0.462961
0.579635 0.672224 0.450975
0.635262 0.681437 0.437673
0.678618 0.684377 0.423205
0.710782 0.679055 0.402816
0.739655 0.679506 0.387058
0.761398 0.680395 0.370745
0.786072 0.683138 0.352171
0.814217 0.683800 0.320665
0.843141 0.686943 0.299673
0.874580 0.689107 0.280879
0.899292 0.689204 0.272866
0.919566 0.688313 0.269313
0.936080 0.688336 0.265715
0.948527 0.688559 0.260795
0.958706 0.686396 0.256693
0.967020 0.682543 0.250295
0.973667 0.678950 0.243118
0.163770 0.617090 0.473891
0.167863 0.618438 0.472068
0.171520 0.619361 0.468759
0.174982 0.620089 0.465237
0.177498 0.618567 0.460360
0.181569 0.618756 0.455396
0.187534 0.619904 0.451560
0.196459 0.623327 0.448636
0.206046 0.627546 0.445371
0.216164 0.632051 0.442072
0.224317 0.636494 0.439466
0.231819 0.640580 0.435255
0.290884 0.653925 0.452402
0.436992 0.678823 0.479613
0.519262 0.690344 0.469485
0.583961 0.696327 0.451410
0.641252 0.705453 0.437640
0.685579 0.709683 0.425436
0.718329 0.708635 0.407617
0.747743 0.707053 0.391591
0.769089 0.705749 0.373996
0.789957 0.705662 0.355410
0.811245 0.704865 0.330876
0.837464 0.706180 0.301862
0.865768 0.710903 0.290200
0.892638 0.712233 0.284639
0.914270 0.711936 0.279688
0.928773 0.710874 0.274648
0.942440 0.710079 0.270180
0.956099 0.707400 0.266028
0.966135 0.703740 0.261605
0.973519 0.701850 0.256956
0.179109 0.639426 0.469081
0.184478 0.641594 0.468572
0.189028 0.643092 0.467844
0.192034 0.641938 0.465262
0.194924 0.640364 0.461329
0.200437 0.642171 0.460313
0.207910 0.645826 0.459580
0.215007 0.649642 0.457802
0.223846 0.653801 0.455619
0.232926 0.659692 0.455346
0.240216 0.664432 0.452606
0.249389 0.669593 0.446341
0.288447 0.676175 0.456179
0.424078 0.699135 0.479356
0.523468 0.713656 0.467284
0.589993 0.722284 0.449446
0.649752 0.728020 0.430715
0.692825 0.732195 0.419329
0.724835 0.732542 0.403952
0.754888 0.732814 0.385601
0.780990 0.729816 0.367289
0.800678 0.728750 0.346733
0.816171 0.728305 0.328880
0.832064 0.728163 0.314171
0.858318 0.731479 0.305061
0.884899 0.732526 0.295172
0.909641 0.732201 0.287813
0.926291 0.731817 0.282426
0.939042 0.730937 0.279080
0.953212 0.728389 0.275107
0.965496 0.726014 0.271475
0.973312 0.724855 0.267274
0.197103 0.665057 0.465465
0.201889 0.665964 0.466667
0.205940 0.665878 0.466594
0.209893 0.665618 0.465885
0.214794 0.666577 0.466043
0.222129 0.670424 0.466506
0.229143 0.674155 0.465442
0.236084 0.677670 0.463971
0.243074 0.681685 0.462762
0.250256 0.685125 0.460801
0.257416 0.689207 0.459770
0.273536 0.694969 0.459237
0.303892 0.700779 0.460745
0.406869 0.718229 0.474703
0.523969 0.734848 0.462902
0.601233 0.745225 0.441946
0.660665 0.750104 0.423228
0.698250 0.752219 0.408605
0.730871 0.752296 0.395043
0.759364 0.754041 0.379083
0.786436 0.752972 0.356629
0.805626 0.751762 0.335413
0.822915 0.751512 0.324925
0.836302 0.751818 0.319327
0.853522 0.750011 0.309030
0.878228 0.750420 0.296978
0.900157 0.752260 0.294367
0.919655 0.751921 0.290163
0.938659 0.751629 0.286514
0.953665 0.751579 0.283500
0.964854 0.748595 0.278890
0.972184 0.746259 0.274323
0.208494 0.686494 0.453874
0.213842 0.687377 0.456715
0.218585 0.687922 0.459067
0.223129 0.687566 0.459958
0.229716 0.689512 0.461528
0.237605 0.693533 0.462875
0.245407 0.696794 0.462675
0.253671 0.700633 0.462751
0.262412 0.706265 0.464529
0.269552 0.711242 0.466903
0.286226 0.716560 0.468238
0.323769 0.723777 0.467574
0.353238 0.729160 0.465346
0.399832 0.737766 0.466486
0.522177 0.755722 0.453096
0.610216 0.764611 0.429490
0.668675 0.768822 0.409828
0.708793 0.775018 0.395188
0.740765 0.773669 0.381858
0.766131 0.776066 0.364410
0.790743 0.775309 0.345018
0.809959 0.774599 0.330336
0.829577 0.772119 0.325020
0.844561 0.771541 0.317134
0.857934 0.770257 0.306709
0.871624 0.770940 0.300928
0.892480 0.770811 0.297052
0.912165 0.769817 0.293893
0.933071 0.768838 0.290226
0.948768 0.769854 0.288912
0.961673 0.768702 0.286237
0.971708 0.766307 0.284167
0.220041 0.702715 0.443279
0.225889 0.705436 0.448347
0.231161 0.707507 0.451708
0.236492 0.709485 0.454430
0.244208 0.713617 0.457586
0.252993 0.718737 0.460649
0.261796 0.722937 0.462764
0.271646 0.727614 0.465574
0.281716 0.732688 0.467094
0.297764 0.738256 0.467626
0.334091 0.745289 0.469076
0.377356 0.754158 0.470029
0.410818 0.759536 0.467257
0.448544 0.763501 0.457676
0.530940 0.773221 0.439359
0.615885 0.784848 0.412537
0.673410 0.788144 0.387005
0.711334 0.791597 0.372259
